src/icons/gemini.svg

<svg viewBox="0 0 24 24" xmlns="http://www.w3.org/2000/svg">
  <path
    d="M16.047 13.856C16.121 13.243 16.177 12.631 16.177 12C16.177 11.369 16.121 10.756 16.047 10.144H19.184C19.332 10.738 19.425 11.359 19.425 12C19.4209 12.6262 19.34 13.2495 19.184 13.856M14.404 19.016C14.961 17.986 15.388 16.872 15.685 15.712H18.423C17.5238 17.2604 16.0971 18.4333 14.404 19.016ZM14.172 13.856H9.83C9.737 13.243 9.681 12.631 9.681 12C9.681 11.369 9.737 10.747 9.83 10.144H14.173C14.257 10.747 14.322 11.369 14.322 12C14.322 12.631 14.257 13.243 14.173 13.856M12.002 19.387C11.232 18.274 10.609 17.039 10.229 15.712H13.774C13.394 17.039 12.773 18.274 12.002 19.387ZM8.289 8.287H5.579C6.46904 6.73437 7.89479 5.55964 9.589 4.983C9.032 6.013 8.614 7.127 8.289 8.287ZM5.579 15.712H8.289C8.614 16.872 9.032 17.986 9.589 19.016C7.89839 18.4329 6.47468 17.2599 5.579 15.712ZM4.818 13.856C4.66167 13.2496 4.58039 12.6262 4.576 12C4.576 11.36 4.669 10.737 4.817 10.143H7.954C7.88 10.756 7.824 11.369 7.824 12C7.824 12.631 7.88 13.243 7.954 13.856M12 4.603C12.77 5.716 13.393 6.96 13.773 8.287H10.228C10.608 6.96 11.23 5.717 12.001 4.603M18.423 8.287H15.685C15.3948 7.13755 14.9649 6.02796 14.405 4.983C16.0995 5.56274 17.5268 6.73641 18.423 8.287ZM12 2.72C6.868 2.72 2.72 6.896 2.72 12C2.71974 13.2188 2.95958 14.4258 3.42582 15.5519C3.89207 16.6781 4.57559 17.7013 5.43734 18.5632C6.2991 19.4252 7.3222 20.1089 8.44824 20.5754C9.57427 21.0419 10.7812 21.282 12 21.282C13.2189 21.2821 14.4259 21.0421 15.5521 20.5757C16.6782 20.1093 17.7014 19.4256 18.5633 18.5636C19.4252 17.7016 20.1088 16.6783 20.5751 15.5521C21.0414 14.426 21.2813 13.2189 21.281 12C21.2811 10.7813 21.0412 9.57441 20.5749 8.44839C20.1086 7.32238 19.425 6.29924 18.5633 5.4374C17.7016 4.57557 16.6785 3.89192 15.5525 3.4255C14.4266 2.95907 13.2198 2.719 12.001 2.719L12 2.72Z"
    fill="#81C784"
  />
</svg>

<svg viewBox="0 0 24 24" xmlns="http://www.w3.org/2000/svg">
  <path
    d="M16.047 13.856c.074-.613.13-1.225.13-1.856s-.056-1.244-.13-1.856h3.137c.148.594.241 1.215.241 1.856a7.65 7.65 0 0 1-.241 1.856m-4.78 5.16c.557-1.03.984-2.144 1.281-3.304h2.738a7.452 7.452 0 0 1-4.019 3.304m-.232-5.16H9.83c-.093-.613-.149-1.225-.149-1.856s.056-1.253.149-1.856h4.343c.084.603.149 1.225.149 1.856s-.065 1.243-.149 1.856m-2.171 5.531c-.77-1.113-1.393-2.348-1.773-3.675h3.545c-.38 1.327-1.002 2.562-1.773 3.675m-3.712-11.1h-2.71a7.353 7.353 0 0 1 4.01-3.304c-.557 1.03-.975 2.144-1.3 3.304m-2.71 7.425h2.71c.325 1.16.743 2.274 1.3 3.304a7.433 7.433 0 0 1-4.01-3.304m-.761-1.856A7.65 7.65 0 0 1 4.576 12c0-.64.093-1.263.241-1.857h3.137c-.074.613-.13 1.226-.13 1.857s.056 1.243.13 1.856M12 4.603c.77 1.113 1.393 2.357 1.773 3.684h-3.545c.38-1.327 1.002-2.57 1.773-3.684m6.422 3.684h-2.738a14.523 14.523 0 0 0-1.28-3.304 7.412 7.412 0 0 1 4.018 3.304M12 2.72c-5.132 0-9.28 4.176-9.28 9.28A9.28 9.28 0 0 0 12 21.282 9.28 9.28 0 0 0 21.281 12a9.28 9.28 0 0 0-9.28-9.281z"
    fill="#e53935"
    style="fill: #81c784"
  />
</svg>
